assets/office.svg

<?xml version="1.0" encoding="UTF-8"?>
<svg xmlns="http://www.w3.org/2000/svg" id="image-2" fill="none" viewBox="4 2 40 44">
<title>Microsoft 365 logo (2022)</title>
                                <path d="M20.0842 3.02588L19.8595 3.16179C19.5021 3.37799 19.1654 3.61972 18.8512 3.88385L19.4993 3.42798H25L26 11L21 16L16 19.4754V23.4829C16 26.2819 17.4629 28.8774 19.8574 30.3268L25.1211 33.5129L14 40.0002H11.8551L7.85737 37.5804C5.46286 36.131 4 33.5355 4 30.7365V17.2606C4 14.4607 5.46379 11.8645 7.85952 10.4154L19.8595 3.15687C19.9339 3.11189 20.0088 3.06823 20.0842 3.02588Z" fill="url(#paint0_radial_2994_8373)"/>
                                <path d="M20.0842 3.02588L19.8595 3.16179C19.5021 3.37799 19.1654 3.61972 18.8512 3.88385L19.4993 3.42798H25L26 11L21 16L16 19.4754V23.4829C16 26.2819 17.4629 28.8774 19.8574 30.3268L25.1211 33.5129L14 40.0002H11.8551L7.85737 37.5804C5.46286 36.131 4 33.5355 4 30.7365V17.2606C4 14.4607 5.46379 11.8645 7.85952 10.4154L19.8595 3.15687C19.9339 3.11189 20.0088 3.06823 20.0842 3.02588Z" fill="url(#paint1_linear_2994_8373)"/>
                                <path d="M32 19V23.4803C32 26.2793 30.5371 28.8748 28.1426 30.3242L16.1426 37.5878C13.6878 39.0737 10.6335 39.1273 8.1355 37.7487L19.8573 44.844C22.4039 46.3855 25.5959 46.3855 28.1426 44.844L40.1426 37.5803C42.5371 36.1309 43.9999 33.5354 43.9999 30.7364V27.5L42.9999 26L32 19Z" fill="url(#paint2_radial_2994_8373)"/>
                                <path d="M32 19V23.4803C32 26.2793 30.5371 28.8748 28.1426 30.3242L16.1426 37.5878C13.6878 39.0737 10.6335 39.1273 8.1355 37.7487L19.8573 44.844C22.4039 46.3855 25.5959 46.3855 28.1426 44.844L40.1426 37.5803C42.5371 36.1309 43.9999 33.5354 43.9999 30.7364V27.5L42.9999 26L32 19Z" fill="url(#paint3_linear_2994_8373)"/>
                                <path d="M40.1405 10.4153L28.1405 3.15678C25.6738 1.66471 22.6021 1.61849 20.0979 3.01811L19.8595 3.16231C17.4638 4.61143 16 7.20757 16 10.0075V19.4914L19.8595 17.1568C22.4051 15.6171 25.5949 15.6171 28.1405 17.1568L40.1405 24.4153C42.4613 25.8192 43.9076 28.2994 43.9957 30.9985C43.9986 30.9113 44 30.824 44 30.7364V17.2605C44 14.4606 42.5362 11.8644 40.1405 10.4153Z" fill="url(#paint4_radial_2994_8373)"/>
                                <path d="M40.1405 10.4153L28.1405 3.15678C25.6738 1.66471 22.6021 1.61849 20.0979 3.01811L19.8595 3.16231C17.4638 4.61143 16 7.20757 16 10.0075V19.4914L19.8595 17.1568C22.4051 15.6171 25.5949 15.6171 28.1405 17.1568L40.1405 24.4153C42.4613 25.8192 43.9076 28.2994 43.9957 30.9985C43.9986 30.9113 44 30.824 44 30.7364V17.2605C44 14.4606 42.5362 11.8644 40.1405 10.4153Z" fill="url(#paint5_linear_2994_8373)"/>
                                <path d="M4.00428 30.9984C4.00428 30.9984 4.00428 30.9984 4.00428 30.9984Z" fill="url(#paint6_radial_2994_8373)"/>
                                <path d="M4.00428 30.9984C4.00428 30.9984 4.00428 30.9984 4.00428 30.9984Z" fill="url(#paint7_linear_2994_8373)"/>
                                <defs>
                                    <radialGradient id="paint0_radial_2994_8373" cx="0" cy="0" r="1" gradientUnits="userSpaceOnUse" gradientTransform="translate(17.4186 10.6383) rotate(110.528) scale(33.3657 58.1966)">
                                        <stop offset="0.06441" stop-color="#AE7FE2"/>
                                        <stop offset="1" stop-color="#0078D4"/>
                                    </radialGradient>
                                    <linearGradient id="paint1_linear_2994_8373" x1="17.5119" y1="37.8685" x2="12.7513" y2="29.6347" gradientUnits="userSpaceOnUse">
                                        <stop offset="0" stop-color="#114A8B"/>
                                        <stop offset="1" stop-color="#0078D4" stop-opacity="0"/>
                                    </linearGradient>
                                    <radialGradient id="paint2_radial_2994_8373" cx="0" cy="0" r="1" gradientUnits="userSpaceOnUse" gradientTransform="translate(10.4299 36.3511) rotate(-8.36717) scale(31.0503 20.5108)">
                                        <stop offset="0.133928" stop-color="#D59DFF"/>
                                        <stop offset="1" stop-color="#5E438F"/>
                                    </radialGradient>
                                    <linearGradient id="paint3_linear_2994_8373" x1="40.3566" y1="25.3768" x2="35.2552" y2="32.6916" gradientUnits="userSpaceOnUse">
                                        <stop offset="0" stop-color="#493474"/>
                                        <stop offset="1" stop-color="#8C66BA" stop-opacity="0"/>
                                    </linearGradient>
                                    <radialGradient id="paint4_radial_2994_8373" cx="0" cy="0" r="1" gradientUnits="userSpaceOnUse" gradientTransform="translate(41.0552 26.504) rotate(-165.772) scale(24.9228 41.9552)">
                                        <stop offset="0.0584996" stop-color="#50E6FF"/>
                                        <stop offset="1" stop-color="#436DCD"/>
                                    </radialGradient>
                                    <linearGradient id="paint5_linear_2994_8373" x1="16.9758" y1="3.05655" x2="24.4868" y2="3.05655" gradientUnits="userSpaceOnUse">
                                        <stop offset="0" stop-color="#2D3F80"/>
                                        <stop offset="1" stop-color="#436DCD" stop-opacity="0"/>
                                    </linearGradient>
                                    <radialGradient id="paint6_radial_2994_8373" cx="0" cy="0" r="1" gradientUnits="userSpaceOnUse" gradientTransform="translate(41.0552 26.504) rotate(-165.772) scale(24.9228 41.9552)">
                                        <stop offset="0.0584996" stop-color="#50E6FF"/>
                                        <stop offset="1" stop-color="#436DCD"/>
                                    </radialGradient>
                                    <linearGradient id="paint7_linear_2994_8373" x1="16.9758" y1="3.05655" x2="24.4868" y2="3.05655" gradientUnits="userSpaceOnUse">
                                        <stop offset="0" stop-color="#2D3F80"/>
                                        <stop offset="1" stop-color="#436DCD" stop-opacity="0"/>
                                    </linearGradient>
                                </defs>
                            </svg>

<svg xmlns="http://www.w3.org/2000/svg" fill="none" viewBox="4 2 40 44"><path fill="url(#a)" d="m20 3-.1.2a8 8 0 0 0-1 .7l.6-.5H25l1 7.6-5 5-5 3.5v4a8 8 0 0 0 3.9 6.8l5.2 3.2L14 40h-2.1l-4-2.4A8 8 0 0 1 4 30.7V17.3a8 8 0 0 1 3.9-6.9l12-7.2.2-.2Z"/><path fill="url(#b)" d="m20 3-.1.2a8 8 0 0 0-1 .7l.6-.5H25l1 7.6-5 5-5 3.5v4a8 8 0 0 0 3.9 6.8l5.2 3.2L14 40h-2.1l-4-2.4A8 8 0 0 1 4 30.7V17.3a8 8 0 0 1 3.9-6.9l12-7.2.2-.2Z"/><path fill="url(#c)" d="M32 19v4.5a8 8 0 0 1-3.9 6.8l-12 7.3a8 8 0 0 1-8 .1L20 44.8a8 8 0 0 0 8.2 0l12-7.2a8 8 0 0 0 3.9-6.9v-3.2L43 26l-11-7Z"/><path fill="url(#d)" d="M32 19v4.5a8 8 0 0 1-3.9 6.8l-12 7.3a8 8 0 0 1-8 .1L20 44.8a8 8 0 0 0 8.2 0l12-7.2a8 8 0 0 0 3.9-6.9v-3.2L43 26l-11-7Z"/><path fill="url(#e)" d="m40.1 10.4-12-7.2a8 8 0 0 0-8-.2l-.2.2A8 8 0 0 0 16 10v9.5l3.9-2.3a8 8 0 0 1 8.2 0l12 7.2a8 8 0 0 1 3.9 6.3V17.3a8 8 0 0 0-3.9-6.9Z"/><path fill="url(#f)" d="m40.1 10.4-12-7.2a8 8 0 0 0-8-.2l-.2.2A8 8 0 0 0 16 10v9.5l3.9-2.3a8 8 0 0 1 8.2 0l12 7.2a8 8 0 0 1 3.9 6.3V17.3a8 8 0 0 0-3.9-6.9Z"/><path fill="url(#g)" d="M4 31Z"/><path fill="url(#h)" d="M4 31Z"/><defs><radialGradient id="a" cx="0" cy="0" r="1" gradientTransform="matrix(-11.68491 31.25272 -54.51114 -20.38088 17.4 10.7)" gradientUnits="userSpaceOnUse"><stop offset=".1" stop-color="#AE7FE2"/><stop offset="1" stop-color="#0078D4"/></radialGradient><radialGradient id="c" cx="0" cy="0" r="1" gradientTransform="matrix(30.7198 -4.51832 2.98465 20.29248 10.4 36.4)" gradientUnits="userSpaceOnUse"><stop offset=".1" stop-color="#D59DFF"/><stop offset="1" stop-color="#5E438F"/></radialGradient><radialGradient id="e" cx="0" cy="0" r="1" gradientTransform="matrix(-24.1583 -6.12555 10.3118 -40.66824 41 26.5)" gradientUnits="userSpaceOnUse"><stop offset=".1" stop-color="#50E6FF"/><stop offset="1" stop-color="#436DCD"/></radialGradient><radialGradient id="g" cx="0" cy="0" r="1" gradientTransform="matrix(-24.1583 -6.12555 10.3118 -40.66824 41 26.5)" gradientUnits="userSpaceOnUse"><stop offset=".1" stop-color="#50E6FF"/><stop offset="1" stop-color="#436DCD"/></radialGradient><linearGradient id="b" x1="17.5" x2="12.8" y1="37.9" y2="29.6" gradientUnits="userSpaceOnUse"><stop offset="0" stop-color="#114A8B"/><stop offset="1" stop-color="#0078D4" stop-opacity="0"/></linearGradient><linearGradient id="d" x1="40.4" x2="35.3" y1="25.4" y2="32.7" gradientUnits="userSpaceOnUse"><stop offset="0" stop-color="#493474"/><stop offset="1" stop-color="#8C66BA" stop-opacity="0"/></linearGradient><linearGradient id="f" x1="17" x2="24.5" y1="3.1" y2="3.1" gradientUnits="userSpaceOnUse"><stop offset="0" stop-color="#2D3F80"/><stop offset="1" stop-color="#436DCD" stop-opacity="0"/></linearGradient><linearGradient id="h" x1="17" x2="24.5" y1="3.1" y2="3.1" gradientUnits="userSpaceOnUse"><stop offset="0" stop-color="#2D3F80"/><stop offset="1" stop-color="#436DCD" stop-opacity="0"/></linearGradient></defs></svg>
